src/assets/filled/Frame.svg

<svg width="24" height="24" viewBox="0 0 24 24"  xmlns="http://www.w3.org/2000/svg">
<path d="M12 2C9.38 2 7.25 4.13 7.25 6.75C7.25 9.32 9.26 11.4 11.88 11.49C11.96 11.48 12.04 11.48 12.1 11.49C12.12 11.49 12.13 11.49 12.15 11.49C12.16 11.49 12.16 11.49 12.17 11.49C14.73 11.4 16.74 9.32 16.75 6.75C16.75 4.13 14.62 2 12 2Z" />
<path d="M17.08 14.1499C14.29 12.2899 9.73996 12.2899 6.92996 14.1499C5.65996 14.9999 4.95996 16.1499 4.95996 17.3799C4.95996 18.6099 5.65996 19.7499 6.91996 20.5899C8.31996 21.5299 10.16 21.9999 12 21.9999C13.84 21.9999 15.68 21.5299 17.08 20.5899C18.34 19.7399 19.04 18.5999 19.04 17.3599C19.03 16.1299 18.34 14.9899 17.08 14.1499Z" />
</svg>

<?xml version="1.0" encoding="UTF-8"?>
<svg width="24" height="24" viewBox="0 0 24 24" xmlns="http://www.w3.org/2000/svg">
 <path d="m12 2c-2.62 0-4.75 2.13-4.75 4.75 0 2.57 2.01 4.65 4.63 4.74 0.08-0.01 0.16-0.01 0.22 0h0.05 0.02c2.56-0.09 4.57-2.17 4.58-4.74 0-2.62-2.13-4.75-4.75-4.75z"/>
 <path d="m17.08 14.15c-2.79-1.86-7.34-1.86-10.15 0-1.27 0.85-1.97 2-1.97 3.23s0.7 2.37 1.96 3.21c1.4 0.94 3.24 1.41 5.08 1.41s3.68-0.47 5.08-1.41c1.26-0.85 1.96-1.99 1.96-3.23-0.01-1.23-0.7-2.37-1.96-3.21z"/>
</svg>
